frontend/src/assets/alertTriangle.svg

<svg width="95" height="89" viewBox="0 0 95 89" fill="none" xmlns="http://www.w3.org/2000/svg">
<path d="M51.4439 69.0008C51.4439 70.0616 51.0269 71.079 50.2846 71.8291C49.5423 72.5792 48.5356 73.0006 47.4859 73.0006C46.4361 73.0006 45.4294 72.5792 44.6871 71.8291C43.9448 71.079 43.5278 70.0616 43.5278 69.0008C43.5278 67.94 43.9448 66.9226 44.6871 66.1725C45.4294 65.4223 46.4361 65.0009 47.4859 65.0009C48.5356 65.0009 49.5423 65.4223 50.2846 66.1725C51.0269 66.9226 51.4439 67.94 51.4439 69.0008ZM44.5173 56.0013C44.5173 56.7969 44.8301 57.5599 45.3868 58.1225C45.9435 58.6851 46.6986 59.0012 47.4859 59.0012C48.2732 59.0012 49.0282 58.6851 49.5849 58.1225C50.1416 57.5599 50.4544 56.7969 50.4544 56.0013V30.0023C50.4544 29.2067 50.1416 28.4437 49.5849 27.8811C49.0282 27.3185 48.2732 27.0024 47.4859 27.0024C46.6986 27.0024 45.9435 27.3185 45.3868 27.8811C44.8301 28.4437 44.5173 29.2067 44.5173 30.0023V56.0013ZM37.9549 5.68328C42.095 -1.89243 52.8767 -1.89643 57.0168 5.68328L93.6285 72.6806C97.6341 80.0123 92.3857 89 84.1016 89H10.9018C2.61768 89 -2.63462 80.0163 1.3709 72.6846L37.9549 5.68328ZM51.816 8.58316C51.3882 7.8012 50.761 7.14935 49.9995 6.69542C49.238 6.24149 48.37 6.00207 47.4859 6.00207C46.6017 6.00207 45.7338 6.24149 44.9723 6.69542C44.2107 7.14935 43.5835 7.8012 43.1558 8.58316L6.56779 75.5845C6.15196 76.3459 5.93984 77.2038 5.9524 78.0734C5.96496 78.943 6.20175 79.7942 6.6394 80.543C7.07704 81.2919 7.7004 81.9124 8.44791 82.3433C9.19543 82.7742 10.0412 83.0007 10.9018 83.0002H84.0976C84.9579 83 85.8032 82.773 86.5502 82.3418C87.2971 81.9106 87.9199 81.29 88.3571 80.5413C88.7943 79.7926 89.0307 78.9416 89.0431 78.0724C89.0555 77.2031 88.8434 76.3456 88.4277 75.5845L51.816 8.58316Z" fill="#E6E3F6"/>
</svg>

<svg xmlns="http://www.w3.org/2000/svg" width="95" height="89" fill="none"><path fill="#E6E3F6" d="M51.444 69c0 1.062-.417 2.079-1.16 2.83A3.94 3.94 0 0 1 47.487 73a3.94 3.94 0 0 1-2.799-1.17 4.02 4.02 0 0 1-1.16-2.83c0-1.06.418-2.077 1.16-2.828a3.94 3.94 0 0 1 2.799-1.171c1.05 0 2.056.421 2.799 1.171a4.02 4.02 0 0 1 1.159 2.829m-6.927-12.999c0 .796.313 1.559.87 2.122a2.95 2.95 0 0 0 2.099.878c.787 0 1.542-.316 2.099-.878s.87-1.326.87-2.122V30.002c0-.795-.313-1.558-.87-2.12a2.95 2.95 0 0 0-2.1-.88c-.786 0-1.541.317-2.098.88a3.02 3.02 0 0 0-.87 2.12zM37.955 5.683c4.14-7.575 14.922-7.58 19.062 0l36.612 66.998C97.634 80.012 92.386 89 84.102 89h-73.2C2.618 89-2.635 80.016 1.37 72.685zm13.861 2.9a5 5 0 0 0-1.817-1.888 4.91 4.91 0 0 0-5.027 0 5 5 0 0 0-1.816 1.888L6.568 75.585a5.04 5.04 0 0 0 .071 4.958 5 5 0 0 0 1.809 1.8c.747.431 1.593.658 2.454.657h73.196c.86 0 1.705-.227 2.452-.658a5 5 0 0 0 1.807-1.8 5.04 5.04 0 0 0 .07-4.957z"/></svg>
